X:9059
T:La Rosina nel Rosal
R:Xiraldilla
C:Tradicional. Igüa de Francisco Rodríguez Lavandera
S:Música Tradicional Asturiana, (C) Tello & Tito. Asturies, 2001.
S:http://pagina.de/MusTradAst <telloytito@asturies.org>
N:Igüa de Fidel Maya y Francisco Rodríguez Lavandera.
N:Transcrito de las postales musicales de Pachín de Melás.
A:Asturies
B:Álbum. Alma Asturiana. Fidel Maya y Francisco Rodríguez Lavandera
G:Arrg.
Z:Maya y Lavandera
E:2 Voces
M:2/4
L:1/8
Q:1/4=120
W:La Rosina nel rosal
W:ya se va esfoyando,
W:xardinera de mio vida
W:l'agua se la va llevando.
W:
W:Entrala y nun temas
W:soldadito veterano
W:entrala y nun temas
W:que yo te daré la mano.
K:Eb
V:1
|E3G|B3c|B2 (3AGA|B4|A3F|G3E|F3D|E2E2|
E3G|B3c|B2 (3AGA|B2 B2|A3F|G3E|F3D|E2 E2|
aa ff|gg ee|ee dd|e2 e2|AA FF|GG EE|FF DD|E2 E2||
V:2
|E3G|B3c|B2 (3AGA|B4|A3F|G3E|F3D|E2E2|
E3G|B3c|B2 (3AGA|B2 B2|A3F|G3E|F3D|E2 E2|
[aB][aB][gB][gB]|[gB][gB][eB][eB]|[gB][gB][dB][dB]|[e2B2][e2B2]|
[AB,][AB,][FB,][FB,]|[GB,][GB,][EC][EC]|[FC][FC][DA,][DA,]|[E2G,2][E2G,2]||
V:3
|"(Eb)"[B,2G,2E,2][B,2G,2E,2]|"(Eb)"[B,2G,2E,2][B,2G,2E,2]|
"(Eb)"[B,2G,2E,2] "(Ab)"[C2A,2E,2]|"(Eb)"[B,2G,2E,2][B,2G,2E,2]|
"(Bb7)"[B,2A,2D,2] [B,2A,2D,2]|"(Eb)"[B,2G,2E,2][B,2G,2E,2]|
[A,2B,2] [A,2B,2]|[G,2E,2] [G,2E,2]|"(Eb)"[B,2G,2E,2][B,2G,2E,2]|
"(Eb)"[B,2G,2E,2][B,2G,2E,2]|"(Ab)"[C,2A,2E,2] [C,2A,2E,2]|
"(Eb)"[B,2G,2E,2][B,2G,2E,2]|
|[D,2B,2] [D,2B,2]|[E,2B,2] [E,2B,2]|[B,2A,2] [B,2A,2]|[B,2G,2] [B,2G,2]|
|CC [B,A][B,A]|[B,E][B,E] [B,G][B,G]|[B,A][B,A] [B,F][B,F]|[B,2G2][B,2G2]|
D,D, D,D,|E,E, C,C,|A,,A,, B,,B,,|[B,,2E,,2] [B,,2E,,2]||


